/* XPM */
static char *_743515024065[] = {
/* columns rows colors chars-per-pixel */
"80 80 220 2 ",
"   c #090808",
".  c #030E12",
"X  c #0A1816",
"o  c #1B1A1A",
"O  c #121614",
"+  c #0A130E",
"@  c #12251F",
"#  c #011922",
"$  c #1C1B22",
"%  c #092429",
"&  c #16272A",
"*  c #132F30",
"=  c #252625",
"-  c #2D2D2D",
";  c #252628",
":  c #212D33",
">  c #243436",
",  c #2A363A",
"<  c #293739",
"1  c #353434",
"2  c #343A3B",
"3  c #2A312A",
"4  c #1B3E42",
"5  c #293E42",
"6  c #1A454B",
"7  c #2B454B",
"8  c #344A4D",
"9  c #374345",
"0  c #2E545D",
"q  c #3A505A",
"w  c #3C5A62",
"e  c #3E6670",
"r  c #414141",
"t  c #4C4B49",
"y  c #4D5B5A",
"u  c #485655",
"i  c #545454",
"p  c #595B5A",
"a  c #555958",
"s  c #4A4E59",
"d  c #615D5E",
"f  c #445961",
"g  c #4A5D61",
"h  c #4E676E",
"j  c #5A6060",
"k  c #4E6F77",
"l  c #517279",
"z  c #596C72",
"x  c #646462",
"c  c #6E6D6C",
"v  c #6B646B",
"b  c #646470",
"n  c #6A7573",
"m  c #757574",
"M  c #7A7A7A",
"N  c #727D81",
"B  c #637B85",
"V  c #598588",
"C  c #64868D",
"Z  c #7A8283",
"A  c #7B9399",
"S  c #6F969B",
"D  c #7C9EA2",
"F  c #7CA4A7",
"G  c #79A6A9",
"H  c #7CB0B8",
"J  c #848484",
"K  c #8B8B8B",
"L  c #898A88",
"P  c #8A8A96",
"I  c #8D9295",
"U  c #86969A",
"Y  c #939493",
"T  c #9C9F9D",
"R  c #95969A",
"E  c #8EA39E",
"W  c #819CA6",
"Q  c #919DA4",
"!  c #84A2AA",
"~  c #8AA4AB",
"^  c #87A7AA",
"/  c #8AB4BA",
"(  c #93AEB7",
")  c #A3A2A2",
"_  c #ADABAC",
"`  c #ABB4B6",
"'  c #A7BBBA",
"]  c #B4B3B4",
"[  c #BABAB9",
"{  c #B7BAB6",
"}  c #BCC2BE",
"|  c #C3C0BB",
" . c #89B8C1",
".. c #9ABBC2",
"X. c #A4BDC3",
"o. c #9CCACE",
"O. c #8DCBD6",
"+. c #9DCDD3",
"@. c #93CEDA",
"#. c #99C8D2",
"$. c #8ED2DB",
"%. c #9DD2D5",
"&. c #94D4DC",
"*. c #9BD5DC",
"=. c #9ED9DE",
"-. c #93DDDE",
";. c #8FC5C5",
":. c #A2CBCC",
">. c #AFC6CB",
",. c #B9C7C8",
"<. c #A3CBD3",
"1. c #A5D4DC",
"2. c #ACD3DA",
"3. c #A3DADE",
"4. c #AADBDF",
"5. c #A3D3D6",
"6. c #B1D5DE",
"7. c #B2DADC",
"8. c #BBDAD6",
"9. c #B7CBD2",
"0. c #97CFE0",
"q. c #96D5E1",
"w. c #9BD5E1",
"e. c #94DAE4",
"r. c #9DDCE5",
"t. c #96DFE9",
"y. c #9DDDEA",
"u. c #A2D6E4",
"i. c #ACD7E3",
"p. c #A2DCE4",
"a. c #AADCE3",
"s. c #A3DDE9",
"d. c #ABDDEA",
"f. c #A6D7E8",
"g. c #B3DDE3",
"h. c #BBDBE3",
"j. c #B6DEEB",
"k. c #97E0E7",
"l. c #9CE2E5",
"z. c #97E3ED",
"x. c #9DE1EA",
"c. c #99ECEB",
"v. c #9EE1F1",
"b. c #A3E1E6",
"n. c #ABE2E4",
"m. c #A3E2EB",
"M. c #ABE4EC",
"N. c #A5E9EC",
"B. c #B2E2E4",
"V. c #BBE2E6",
"C. c #B4E3EA",
"Z. c #BCE5EA",
"A. c #B9E9EE",
"S. c #A5E4F2",
"D. c #AAE7F1",
"F. c #A3EAF3",
"G. c #ABEAF2",
"H. c #A9E9F9",
"J. c #B3E6F5",
"K. c #B2EBF3",
"L. c #BCE8F1",
"P. c #BAF3FB",
"I. c #A4F1F7",
"U. c #C4C4C4",
"Y. c #CCCCCC",
"T. c #D1D1CF",
"R. c #C7D6D6",
"E. c #D4D4D4",
"W. c #DADADA",
"Q. c #D9D8D8",
"!. c #DCE1DD",
"~. c #C2DEE6",
"^. c #DDDFE3",
"/. c #C4E3E5",
"(. c #CBE4E4",
"). c #C4E6E9",
"_. c #CAE6EB",
"`. c #C5EBEC",
"'. c #CAEBED",
"]. c #C8E8E7",
"[. c #DFE2E2",
"{. c #D2EDED",
"}. c #D2EBE7",
"|. c #CBF0EC",
" X c #D3F0EC",
".X c #DBF2EE",
"XX c #C6EBF1",
"oX c #CAEBF2",
"OX c #C0EBFB",
"+X c #D3EDF2",
"@X c #DAEEF4",
"#X c #CFF1F3",
"$X c #C7F8FE",
"%X c #D3F3F4",
"&X c #DDF2F3",
"*X c #DEF4F9",
"=X c #DCF6F9",
"-X c #E3E4E3",
";X c #ECECEC",
":X c #E6E8EB",
">X c #F9EFEF",
",X c #E3F3EE",
"<X c #EDF3EE",
"1X c #F8F5ED",
"2X c #E8EDF1",
"3X c #ECF5F3",
"4X c #EFFBF7",
"5X c #E3F6FA",
"6X c #ECF6FA",
"7X c #E4FBFC",
"8X c #ECFBFC",
"9X c #E6F1F3",
"0X c #F4F4F4",
"qX c #FBF6F5",
"wX c #F4FCF5",
"eX c #FCFCF6",
"rX c #F5F2F8",
"tX c #FDF7FD",
"yX c #F4FEFC",
"uX c #FEFEFE",
/* pixels */
"uXuXuXuXuXuXuXuXuXuXuXuXuXuXuXuXuXuXuXuXuXuXuXuXuXuXuXuXuXuXuXuXuXuXuXuXuXuXuXuXuXuXuXuXuXuXuXuXuXuXuXuXuXuXuXuXuXuXuXuXuXuXuXuXuXuXuXuXuXuXuXuXuXuXuXuXuXuXuXuX",
"uXuXuXuXuXuXuXuXuXuXuXuXuXuXuXuXuXuXuXuXuXuXuXuXuXuXuXuXuXuXuXuXuXuXuXuXuXuXuXuXuXuXuXuXuXuXuXuXuXuXuXuXuXuXuXuXuXuXuXuXuXuXuXuXuXuXuXuXuXuXuXuXuXuXuXuXuXuXuXuX",
"uXuXuXuXuXuXuXuXuXuXuXuXuXuXuXuXuXuXuXuXuXuXuXuXuXuXuXuXuXuXuXuXuXuXuXuXuXuXuXuXuXuXuXuXuXuXuXuXuXuXuXuXuXuXuXuXuXuXuXuXuXuXuXuXuXuXuXuXuXuXuXuXuXuXuXuXuXuXuXuX",
"uXuXuXuXuXuXuXuXuXuXuXuXuXuXuXuXuXuXuXuXuXuXuXuXuXuXuXuXuXuXuXuXuXuXuXuXuXuXuXuXuXuXuXuXuXuXuXuXuXuXuXuXuXuXuXuXuXuXuXuXuXuXuXuXuXuXuXuXuXuXuXuXuXuXuXuXuXuXuXuX",
"uXuXuXuXuXuXuXuXuXuXuXuXuXuXuXuXuXuXuXuXuXuXuXuXuXuXuXuXuXuXuXuXuXuXuXuXuXuXuXuXuXuXuXuXuXuXuXuXuXuXuXuXuXuXuXuXuXuXuXuXuXuXuXuXuXuXuXuXuXuXuXuXuXuXuXuXuXuXuXuX",
"uXuXuXuXuXuXuXuXuXuXuXuXuXuXuXuXuXuXuXuXuXuXuXuXuXuXuXuXuXuXuXuXuXuXuXuXuXuXuXuXuXuXuXuXuXuXuXuXuXuXuXuXuXuXuXuXuXuXuXuXuXuXuXuXuXuXuXuXuXuXuXuXuXuXuXuXuXuXuXuX",
"uXuXuXuXuXuXuXuXuXuXuXuXuXuXuXuXuXuXuXuXuXuXuXuXuXuXuXuXuXuXuXuXuXuXuXuXuXuXuXuXuXuXuXuXuXuXuXuXuXuXuXuXuXuXuXuXuXuXuXuXuXuXuXuXuXuXuXuXuXuXuXuXuXuXuXuXuXuXuXuX",
"uXuXuXuXuXuXuXuXuXuXuXuXuXuXuXuXuXuXuXuXuXuXuXuXuXuXuXuXuXuXuXuXuXuXuXuXuXuXuXuXuXuXuXuXuXuXuXuXuXuXuXuXuXuXuXuXuXuXuXuXuXuXuXuXuXuXuXuXuXuXuXuXuXuXuXuXuXuXuXuX",
"uXuXuXuXuXuXuXuXuXuXuXuXuXuXuXuXuXuXuXuXuXuXuXuXuXuXuXuXuXuXuXuXuXuXuXuXuXuXuXuXuXuXuXuXuXuXuXuXuXuXuXuXuXuXuXuXuXuXuXuXuXuXuXuXuXuXuXuXuXuXuXuXuXuXuXuXuXuXuXuX",
"uXuXuXuXuXuXuXuXuXuXuXuXuXuXuXuXuXuXuXuXuXuXuXuXuXuXuXuXuXuXuXuXuXuXuXuXuXuXuXuXuXuXuXuXuXuXuXuXuXuXuXuXuXuXuXuXuXuXuXuXuXuXuXuXuXuXuXuXuXuXuXuXuXuXuXuXuXuXuXuX",
"uXuXuXuXuXuXuXuXuXuXuXuXuXuXuXuXuXuXuXuXuXuXuXuXuXuXuXuXuXuXuXuXuXuXuXuXuXuXuXuXuXuXuXuXuXuXuXuXuXuXuXuXuXuXuXuXuXuXuXuXuXuXuXuXuXuXuXuXuXuXuXuXuXuXuXuXuXuXuXuX",
"uXuXuXuXuXuXuXuXuXuXuXuXuXuXuXuXuXuXuXuXuXuXuXuXuXuXuXuXuXuXuXuXuXuXuXuXuXuXuXuXuXuXuXuXuXuXuXuXuXuXuXuXuXuXuXuXuXuXuXuXuXuXuXuXuXuXuXuXuXuXuXuXuXuXuXuXuXuXuXuX",
"uXuXuXuXuXuXuXuXuXuXuXuXuXuXuXuXuXuXuXuXuXuXuXuXuXuXuXuXuXuXuXuXuXuXuXuXuXuXuXuXuXuXuXuXuXuXuXuXuXuXuXuXuXuXuXuXuXuXuXuXuXuXuXuXuXuXuXuXuXuXuXuXuXuXuXuXuXuXuXuX",
"uXuXuXuXuXuXuXuXuXuXuXuXuXuXuXuXuXuXuXuXuXuXuXuXuXuXuXuXuXuXuXuXuXuXuXuXuXuXuXuXuXuXuXuXuXuXuXuXuXuXuXuXuXuXuXuXuXuXuXuXuXuXuXuXuXuXuXuXuXuXuXuXuXuXuXuXuXuXuXuX",
"uXuXuXuXuXuXuXuXuXuXuXuXuXuXuXuXuXuXuXuXuXuXuXuXuXuXuXuXuXuXuXuXuXuXuXuXuXuXuXuXuXuXuXuXuXuXuXuXuXuXuXuXuXuXuXuXuXuXuXuXuXuXuXuXuXuXuXuXuXuXuXuXuXuXuXuXuXuXuXuX",
"uXuXuXuXuXuXuXuXuXuXuXuXuXuXuXuXuXuXuXuXuXuXuXuXuXuXuXuXuXuXuXuXuXuXuXuXuXuXuXuXuXuXuXuXuXuXuXuXuXuXuXuXuXuXuXuXuXuXuXuXuXuXuXuXuXuXuXuXuXuXuXuXuXuXuXuXuXuXuXuX",
"uXuXuXuXuXuXuXuXuXuXuXuXuXuXuXuXuXuXuXuXuXuXuXuXuXuXuXuXuXuXuXuXuXuXuXuXuXuXuXqXuXuXqXuXuX0XuXuXuXuXuXuXuXuXwXuXuXuXuXuXuXuXuXuXuXuXuXuXuXuXuXuXuXuXuXuXuXuXuXuX",
"uXuXuXuXuXuXuXuXuXuXuXuXuXuXuXuXuXuXuXuXuXuXuXuXuXuXuXuXuXuXuXuXuXuXuXuX0XuXuXuXuXuXuX0XuXuX0XuXuXuXtXqX0XuXuXuXuXuXuXuXuXuXuXuXuXuXuXuXuXuXuXuXuXuXuXuXuXuXuXuX",
"uXuXuXuXuXuXuXuXuXuXuXuXuXuXuXuXuXuXuXuXuXuXuXuXuXuXuXuXuXuXuXuXuX0XuXuXuXuXqXuXuX0XuXuXuX0XuXuXuXuXuXuXuXuXuXtXuXuXuXuXuXuXuXuXuXuXuXuXuXuXuXuXuXuXuXuXuXuXuXuX",
"uXuXuXuXuXuXuXuXuXuXuXuXuXuXuXuXuXuXuXuXuXuXuXuXuXuXuXuXuXuXuXuX0XuX0XuXuXuXuX0XuXuX0XuX<XuXuX0XuX0XwXuXuXuXuXqXuXuXuXuXuXuXuXuXuXuXuXuXuXuXuXuXuXuXuXuXuXuXuXuX",
"uXuXuXuXuXuXuXuXuXuXuXuXuXuXuXuXuXuXuXuXuXuXuXuXuXuXuXuXuXuXuXuXuXuXuXuXuX0XwXuXU.<XuXuXuXuXuXuXuXuXqXuXtXtXuXuXuXuXuXuXuXuXuXuXuXuXuXuXuXuXuXuXuXuXuXuXuXuXuXuX",
"uXuXuXuXuXuXuXuXuXuXuXuXuXuXuXuXuXuXuXuXuXuXuXuXuXuXuXuXuXuXuXuXuXuXuXuXuXuX] + i O K rX0XuX0XuX<XuXuXuXuXyXuXuXuXuXuXuXuXuXuXuXuXuXuXuXuXuXuXuXuXuXuXuXuXuXuXuX",
"uXuXuXuXuXuXuXuXuXuXuXuXuXuXuXuXuXuXuXuXuXuXuXuXuXuXuXuXuXuXuXuXwXuXuXuX0XuX  Q.0X;X1 Y uXwXeXE.) <XqXuXuXuXuXuXuXuXuXuXuXuXuXuXuXuXuXuXuXuXuXuXuXuXuXuXuXuXuXuX",
"uXuXuXuXuXuXuXuXuXuXuXuXuXuXuXuXuXuXuXuXuXuXuXuXuXuXuXuXuXuXuXuXuXuXqXuXuXK c qXuXqXY.o ;XuX;X- ) uXuXuXuX0XuXuXuXuXuXuXuXuXuXuXuXuXuXuXuXuXuXuXuXuXuXuXuXuXuXuX",
"uXuXuXuXuXuXuXuXuXuXuXuXuXuXuXuXuXuXuXuXuXuXuXuXuXuXuXuXuXuXuXuXuX;XuXuXQ.- U.0XuX0XuXx o M t c tXuX-Xc ;XwXuXuXuXuXuXuXuXuXuXuXuXuXuXuXuXuXuXuXuXuXuXuXuXuXuXuX",
"uXuXuXuXuXuXuXuXuXuXuXuXuXuXuXuXuX0XuXuXuXuXuXuXuX0XuXuX0X0XuXuX0XuXU.x = J uXuX1XuX0XuXQ.M = Y 3Xd 1 m yXuXuXuXeXuXuXuXuXuXuXwXuXuXuXuXuXuXuXuXuXuXuXuXuXuXuXuX",
"uXuXuXuXuXuXuXuXuXuXuXuXuXuXuXuXuX0XuXuX0XuXwXtXuXuXuXuXuXuXuXuXY.i - Y E.:X0XuXuXuXuXuXyXyX` > $ m ^.uX0XyXuXyXuXyXuXuXuXuXuXuXuXuXuXuXuXuXuXuXuXuXuXuXuXuXuXuX",
"uXuXuXuXuXuXuXuXuXuXuXuXuXuXuXuXuXuX0X0XuXuXuXuXuXuXuXuX0XuXU.p r L ;XQ.Y.T.uXuX0XyXyXL ,.8XyX9.. &X/.V.%Xh.oX#X8XuXuXwXqXuXuXuXtXuXuXuXuXuXyXuXuXuXuXuXuXuXuXuX",
"uXuXuXuXuXuXuXuXuXuXuXuXuXuXuXuX0XuXuXuXuX0X;XuXuXuXuXuXT.r ; ) Y.Y.W.qX<X:XrXuXuXuXT.& Z 9.R.(.X./ 3.w.f.J.s.&.@X6XuXuXeXqXuXuXuXuXuXyXyXuXuXuXuXuXuXuXuXuXuXuX",
"uXuXuXuXuXuXuXuXuXuXuXuXuXuXuXuXuXqXuX0XuX] a r J uX0Xp o J :XqXY.Y.Y.0XuXqXuXuXuX1XuX,XyXyXyX6X9.V N.t.S.0.q.I.i.XX8XuXuXuXuXuXyXuXuXuXuXuXuXuXuXuXuXuXuXuXuXuX",
"uXuXuXuXuXuXuXuXuXuXuXuXuXuXuXuXwXtXuXuX;Xi ) U.i ; ; M Y.Y.U.E.uX0X;XuXuX0XuX0XuXT.W.0X0XyXuXuX;X# 5.r.f.j.p.l.q.i.'.8XyX4X8X8XwXyXyXyXuXuXuXuXuXuXuXuXuXuXuXuX",
"uXuXuXuXuXuXuXuXuXuXuXuXuXuXuXuXuXuX0XuXuXo ;XuXqX{ U.0X;XQ.Q.Y.0XuXuX0XuXuXE.K R t _ uXuXuXeXeXeX2 :.G w q <.3.z.r.n.].}.(./.|.,X,X8XyXuXuXuXuXuXuXuXuXuXuXuXuX",
"uXuXuXuXuXuXuXuXeXuXeXuXuXuXuXyXuXqXuXuX;X1 0XeXyXuXuXyXeXuXqXuXuXuXuXuXqXuX1 L m c ;XuXuXuXuXuX0XO y 3 R b C v.s.s.a.a.s.b.-.c.b.p.A.=XuXuXuXwXuXuXuXuXuXuXuXuX",
"uXuXuXuXuXuXuXuXyXyXuXuXuXuXuXuXuXuXwXuX{ a uXuXuX3XqXuXuXeXuX0XuXuXuXuX0XL 1 ;XuXuXuXuXqXuXuXuXJ + n <XtXP B r.e.m.p.s.*.*.G.r.p.w.C.'.2XuXuXeXuXuXuXuXuXuXuXuX",
"uXuXuXuXuXuXuXuXyXyXuXuXeXeXeXuXuXyX3X8XU M uXuXuXuXuXuX0XuXuXuX0XuXuX0X0XK Q uX0XqXyXtXuX0X0XE.= } wXuX_ $ ( C.F.k.z.k.x.s.p.d.a.y.b.n./.4XuXuXuXuXuXuXuXuXuXuX",
"uXuXuXuXuXuXuXuXuXuXuXeXuXuXuXuXyX=X&X`.U E uXqX>XuX0XuXuXyXZ j Y.uXuXuX0X0XuXqXuXuXuXuXuXuX;X= m <XeXT   2 ' 7.*.w.l.e.k.S.w.d.d.m.x.b.C.5XuXuXuXuXuXuXuXuXuXuX",
"uXuXuXuXuXuXuXuXuXuXeXuXuXuXuXyX%XZ.Z.2...>.tXeXuXuXuXuXuX8X< . _ uXuXuXuXuXuXuXuXqXuXuXtX;X- i qX0XuXuX!.Y , 9 W h.1.M.F.$.S.q.f.y.z.e.a.5XuXuXuXuXuXuXuXuXuXuX",
"uXuXuXuXuXuXuXuXuXuXuXuXyX8X+X].n.a.3.p.g.'.yXuXuX;XuXwXyX8X' R.E.qXuXuXuXuXuXuX0XuXuXuX-Xr m uXeXuXuX;XuX2XyX` s : ! 2.+.P.N.x.a.r.x.r.j.&XuXuXuXuXuXuXuXuXuXuX",
"uXuXuXuXuXuXuXuXuXuXuX8X%X).a.p.p.s.r.y.J.+XwXqX0XuXuX8X8X}.].7XuX0XyXuXuXuXuX0XuXuXuX<Xr J uX0XwXuXuXeXuXuX<XuXuXY., 9 X.:.%.M.s.r.y.r.g.@XuXyXuXuXuXuXuXuXuXuX",
"uXuXuXuXuXuXuXuXeXwX8X+XB.3.l.z.p.e.F.e.S.8.9XQ.x uXwXyX8X8.8.7X0XuXuXuXuXtX0XuXuX0XuXuX0X0XuXuXyXuXuXeXyX3XuXuXwXyXwXI & 7 S +.m.r.y.d.h.@XyXuXuXuXuXuXuXuXuXuX",
"uXuXuXuXuXuXuXuXeXwX$XJ.s.s.S.y.&.D.r.p.u.6.f & R tX>XwXoXa.(.1XuXuXuX0XuXuXuXuXuXuXuXuXuXuXuXuXqXuXuX0XuXuXuXuXqXuXeXuXqX{ p = N 6.y.y.p.'.yXuXuXuXuXuXuXuXuXuX",
"uXuXuXuXuXuXuXuXeX&XL.d.r.s.s.r.r.*.s.m.d.0 7 R.6XY.[ 6Xi.f.8XeXuX;XuXuXuXuXuX0XuXuXuXuXuXuXuXuXuXuXuXuXuXuX3X0XuX;XuXeXuXuX0XQ.& / y.y.a.%XyXqXuXuXuXuXuXuXuXuX",
"uXuXuXuXuXuXuXuXyX].a.y.r.p.p.r.N.q.m.u.H e ~.<.Q & ~ |.M.#.~ | [ ;XuXuXuXuXuXuXuXuXuXuXuXuXuXuXuXuXuXuXuX;XuXY.W.uXyX-X2X:X[.P 7 / S.y.1.%XuXqXuXuXuXuXuXuXuXuX",
"uXuXuXuXuXuXuXuX5Xj.q.y.y.u.p.p.&.r.y.p.P.1.g.h.X ^ 7.n.r. .z o m E.uX0XuXuX0XuXuXuXuXuXuXuXuXuXuXuXuXuX0X-XE.Q.qXuX<X} > > * h ! p.v.s.4..XyXuXuXuXuXuXuXuXuXuX",
"uXuXuXuXuXuXuXuX#Xa.r.v.b.=.p.s.N.D.@.r.w.j.1.6 k #.C.N.b.<.> ) uXuXuXuX3XtXuXuXuXuXuXuXuXuXuXuXuXrXuX0XuXqX[ uX>XqXZ & ~ <.L.a.4.G.r.s.A..XwXuXuXuXuXuXuXuXuXuX",
"uXuXuXuXuXuXuXuXXXa.r.v.b.=.3.s.w.@.P.s.w.d.%.H u.D.s.w.i.h n rX0XuXuXuXuXuXuXuXuXuXuXuXuXuXuXuXuXwXuXuXuXuXuX0XW., q 2.+.s.r.&.3.m.r.s.7.6XeXuXuXuXuXuXuXuXuXuX",
"uXuXuXuXuXuXuXuX`.a.y.m.b.=.p.s.r.N.r.@.K.p.M.*.*.b.y.a.2.& [.uXuXuXqXuXuXuXuXuXuXuXuXuXuXuXuXuXqXuXuXuX0X0X;XK % D +.a.D.x.r.D.p.s.s.d./.yXuXuXuXuXuXuXuXuXuXuX",
"uXuXuXuXuXuXuXuXoXa.r.l.3.p.s.t.r.s.r.s.s.w.r.b.x.$.H.f.W 9 uXuXT.J ) qXuX0XuXuXuXuXuXuXuXuXuXuXuX0XuX<XuXE.r r ;.=.G.e.e.r.p.u.m.e.f.P.&XuXuXuXuXuXuXuXuXuXuXuX",
"uXuXuXuXuXuXuXuX&X).p.r.k.t.r.w.r.p.3.p.r.p.p.b.r.w.a.g.D g 2XM % B y 5 ` uX>XuXwXeXyXyXuXuXuXeXuXuXeX1XL O F w.y.y.p.p.r.p.y.y.s.a.C..X8XuXuXuXuXuXuXuXuXuXuXuX",
"uXuXuXuXuXuXuXuXyXoX7.3.b.m.v.w.p.p.p.p.p.r.r.r.x.H.r.%.o.4 % g i.<.5.^ 8 < R 8XuXuXuXuXeXqXuXuXeX<XuXW.  ,.4.y.y.y.x.r.r.y.s.r.i.j.+X8XyXuXuXuXuXuXuXuXuXuXuXuX",
"uXuXuXuXuXuXuXuXyX7X%X).g.p.a.s.x.x.x.b.r.p.p.r.k.$.x.l.=.4.+.Z.r.*.K.K.o.^ k X v ] tXuXuXuXuXqXuXuXuX0Xd 5 j.y.r.y.y.x.y.b.p.a.h.+X8XuXuXuXuXuXuXuXuXuXuXuXuXuX",
"uXuXuXuXuXuXuXuXwXuXuX5X_.8.a.b.b.y.x.r.y.r.r.p.N.r.=.m.e.b.D.w.e.F.e.$.N.K.1.1.A u > n U.wXuXyX;XuXrXuXqXu k d.s.s.x.r.l.a.g.j..XyXuXeXeXuXuXuXuXuXuXuXuXuXuXuX",
"uXuXuXuXuXuXuXuXeXuXeXyXyX7X'.B.n.n.p.y.y.l.p.p.*.s.u.m.D.O.r.t.S.y.t.m.x.w.*.a.a.%./ C 8 & u I E.wXuXqXuXR.* C.s.s.p.p.n.Z.'.@XwXuXuXeXeXuXuXuXuXuXuXuXuXuXuXuX",
"uXuXuXuXuXuXuXuXuXuXeXeXuXyX8X7X].Z.g.s.s.p.l.p.s.%.J.*.@.s.H.v.s.r.r.r.q.M.J.s.l.c.l.5.5.2.~ h & < 8 u m y f 1.p.M.B.Z._.&X6XyXuXuXuXuXuXuXuXyXuXuXuXuXuXuXuXuX",
"uXuXuXuXuXuXuXuXuXuXuXyXeXeXuXuXwX.X).M.s.p.l.r.M.&.p.*.J.D.O.r.m.p.q.r.D.r.&.s.-.-.b.N.p.=.p.C.7.5./ ! ! A #.w.p.C.oX*X6XuXuXuXuXuXuXuXuXuXuXuXuXuXuXuXuXuXuXuX",
"uXuXuXuXuXuXuXuXuXuXuXwXeXuXuXqXuXyX{.Z.a.y.r.l.r.r.b.m.p.s.y.r.3.=.l.m.r.r.m.p.p.p.r.=.y.x.x.e.l.l.y.s.i.1.r.S.n.L.*XyXuXuXeXeXuXyXyXuXuXyXuXuXuXuXuXuXuXuXuXuX",
"uXuXuXuXuXuXuXuXuXuXuXuXuXuXuXuXuXuXyX&XV.4.p.v.s.s.p.p.3.p.y.s.b.r.r.r.r.r.r.r.r.t.y.x.x.y.r.x.q.r.p.p.r.r.r.b.7.&XuXeXuXeXuXuXuXuXuXuXuXuXuXuXuXuXuXuXuXuXuXuX",
"uXuXuXuXuXuXuXuXuXuXuXuXuXuXuXuXeXuXuX8X{.C.s.l.s.p.p.p.r.r.y.y.r.b.b.r.b.r.r.l.r.p.r.p.r.r.r.r.m.b.p.p.=.3.b.b./.5XyXuXeXyXuXuXuXuXuXuXuXuXuXuXuXuXuXuXuXuXuXuX",
"uXuXuXuXuXuXuXuXuXuXuXuXuXuXuXuXuXuXuXuX8X+XC.3.y.y.r.l.r.r.r.s.b.b.b.r.r.r.l.p.b.b.p.p.b.p.3.b.b.p.r.=.3.b.n.p.{.8XuXuXyXuXuXuXuXuXuXuXuXuXuXuXuXuXuXuXuXuXuXuX",
"uXuXuXuXuXuXuXuXuXuXuXuXuXuXuXuXwXeXuXuXuX6X`.n.m.x.y.r.l.r.s.s.r.r.r.p.p.p.p.r.=.r.=.r.r.r.b.r.r.r.r.p.p.b.a.a.&XyXtXyXuXuXyXuXuXuXuXuXuXuXuXuXuXuXuXuXuXuXuXuX",
"uXuXuXuXuXuXuXuXuXuXuXuXuXuXuXuXyXuXeXeXuXyX5X|.M.d.p.r.y.r.s.s.r.r.r.r.r.p.p.p.y.y.r.y.y.y.s.y.t.y.v.v.y.s.j.j.8XuXtXuXuXuXyXuXuXuXuXuXuXuXuXuXuXuXuXuXuXuXuXuX",
"uXuXuXuXuXuXuXuXuXuXuXuXuXuXuXuXuXuXuXuXuXyXyX8X'.Z.a.p.p.r.r.r.r.r.r.p.p.p.a.p.s.s.s.m.s.p.r.r.r.r.v.w.u.d.XX%XyXuXuXeXyXuXuXuXuXuXuXuXuXuXuXuXuXuXuXuXuXuXuXuX",
"uXuXuXuXuXuXuXuXuXuXuXuXuXuXuXuXuXuXuXuXeXuXuXuX3X&X).j.m.s.s.r.l.p.p.b.p.a.a.s.3.4.a.n.a.i.a.3.a.g.d.g.Z.+X3XyXeXuXuXuXuXyXyXuXuXuXuXuXuXuXuXuXuXuXuXuXuXuXuXuX",
"uXuXuXuXuXuXuXuXuXuXuXuXuXuXuXuXtXuXuXyXyXeXuXuXuXyX+XZ.M.m.b.x.l.b.p.m.s.s.d.d.).`.'.#X#X%X#X%X X|.+X%X5XwXeXeXeXuXuXuXuXyXuXuXuXuXuXuXuXuXuXuXuXuXuXuXuXuXuXuX",
"uXuXuXuXuXuXuXuXuXuXuXuXuXuXuXuXuXuXuXuXuXuXuXuXuXyXyX5X%X].g.7.g.g.h.].}..X,X,XuXuXuXuXuXuXuXuXuXuXuXuXuXuXuXuXuXuXuXuXuXuXuXuXuXuXuXuXuXuXuXuXuXuXuXuXuXuXuXuX",
"uXuXuXuXuXuXuXuXuXuXuXuXuXuXuXuXuXuXuXuXuXuXuXuXeXuXtXwX8X8X7X=X=X7X7X8X8XuXuXuXuXuXuXuXuXuXuXuXuXuXuXuXuXuXuXuXuXuXuXuXuXuXuXuXuXuXuXuXuXuXuXuXuXuXuXuXuXuXuXuX",
"uXuXuXuXuXuXuXuXuXuXuXuXuXuXuXuXuXuXuXuXuXuXuXuXuXuXuXuXuXuXuXuXyXuXuXyXuXuXuXtXuXuXuXuXuXuXuXuXuXuXuXuXuXuXuXuXuXuXuXuXuXuXuXuXuXuXuXuXuXuXuXuXuXuXuXuXuXuXuXuX",
"uXuXuXuXuXuXuXuXuXuXuXuXuXuXuXuXuXuXuXuXuXuXuXuXuXuXuXuXuXuXeXyXuXuXuXuXuXuXuXqXuXuXuXuXuXuXuXuXuXuXuXuXuXuXuXuXuXuXuXuXuXuXuXuXuXuXuXuXuXuXuXuXuXuXuXuXuXuXuXuX",
"uXuXuXuXuXuXuXuXuXuXuXuXuXuXuXuXuXuXuXuXuXuXuXuXuXuXuXuXuXeXeXuXuXeXuXuXuXuXuXuXuXuXuXuXuXuXuXuXuXuXuXuXuXuXuXuXuXuXuXuXuXuXuXuXuXuXuXuXuXuXuXuXuXuXuXuXuXuXuXuX",
"uXuXuXuXuXuXuXuXuXuXuXuXuXuXuXuXuXuXuXuXuXuXuXuXyXuXuXuXuXuXuXeXeXeXeXeXeXyXyXwXuXuXuXuXuXuXuXuXuXuXuXuXuXuXuXuXuXuXuXuXuXuXuXuXuXuXuXuXuXuXuXuXuXuXuXuXuXuXuXuX",
"uXuXuXuXuXuXuXuXuXuXuXuXuXuXuXuXuXuXuXuXuXuXuXuXuXuXuXuXuXuXuXyXuXuXuXuXuXuXuXuXuXuXuXuXuXuXuXuXuXuXuXuXuXuXuXuXuXuXuXuXuXuXuXuXuXuXuXuXuXuXuXuXuXuXuXuXuXuXuXuX",
"uXuXuXuXuXuXuXuXuXuXuXuXuXuXuXuXuXuXuXuXuXuXuXuXuXuXuXuXuXuXuXuXuXuXuXuXuXuXuXuXuXuXuXuXuXuXuXuXuXuXuXuXuXuXuXuXuXuXuXuXuXuXuXuXuXuXuXuXuXuXuXuXuXuXuXuXuXuXuXuX",
"uXuXuXuXuXuXuXuXuXuXuXuXuXuXuXuXuXuXuXuXuXuXuXuXuXuXuXuXuXuXuXuXuXuXuXuXuXuXuXuXuXuXuXuXuXuXuXuXuXuXuXuXuXuXuXuXuXuXuXuXuXuXuXuXuXuXuXuXuXuXuXuXuXuXuXuXuXuXuXuX",
"uXuXuXuXuXuXuXuXuXuXuXuXuXuXuXuXuXuXuXuXuXuXuXuXuXuXuXuXuXuXuXuXuXuXuXuXuXuXuXuXuXuXuXuXuXuXuXuXuXuXuXuXuXuXuXuXuXuXuXuXuXuXuXuXuXuXuXuXuXuXuXuXuXuXuXuXuXuXuXuX",
"uXuXuXuXuXuXuXuXuXuXuXuXuXuXuXuXuXuXuXuXuXuXuXuXuXuXuXuXuXuXuXuXuXuXuXuXuXuXuXuXuXuXuXuXuXuXuXuXuXuXuXuXuXuXuXuXuXuXuXuXuXuXuXuXuXuXuXuXuXuXuXuXuXuXuXuXuXuXuXuX",
"uXuXuXuXuXuXuXuXuXuXuXuXuXuXuXuXuXuXuXuXuXuXuXuXuXuXuXuXuXuXuXuXuXuXuXuXuXuXuXuXuXuXuXuXuXuXuXuXuXuXuXuXuXuXuXuXuXuXuXuXuXuXuXuXuXuXuXuXuXuXuXuXuXuXuXuXuXuXuXuX",
"uXuXuXuXuXuXuXuXuXuXuXuXuXuXuXuXuXuXuXuXuXuXuXuXuXuXuXuXuXuXuXuXuXuXuXuXuXuXuXuXuXuXuXuXuXuXuXuXuXuXuXuXuXuXuXuXuXuXuXuXuXuXuXuXuXuXuXuXuXuXuXuXuXuXuXuXuXuXuXuX",
"uXuXuXuXuXuXuXuXuXuXuXuXuXuXuXuXuXuXuXuXuXuXuXuXuXuXuXuXuXuXuXuXuXuXuXuXuXuXuXuXuXuXuXuXuXuXuXuXuXuXuXuXuXuXuXuXuXuXuXuXuXuXuXuXuXuXuXuXuXuXuXuXuXuXuXuXuXuXuXuX",
"uXuXuXuXuXuXuXuXuXuXuXuXuXuXuXuXuXuXuXuXuXuXuXuXuXuXuXuXuXuXuXuXuXuXuXuXuXuXuXuXuXuXuXuXuXuXuXuXuXuXuXuXuXuXuXuXuXuXuXuXuXuXuXuXuXuXuXuXuXuXuXuXuXuXuXuXuXuXuXuX",
"uXuXuXuXuXuXuXuXuXuXuXuXuXuXuXuXuXuXuXuXuXuXuXuXuXuXuXuXuXuXuXuXuXuXuXuXuXuXuXuXuXuXuXuXuXuXuXuXuXuXuXuXuXuXuXuXuXuXuXuXuXuXuXuXuXuXuXuXuXuXuXuXuXuXuXuXuXuXuXuX"
};
