/* XPM */
static char *_743515015050[] = {
/* columns rows colors chars-per-pixel */
"80 80 86 1 ",
"  c #020202",
". c #090804",
"X c #0C0C0C",
"o c #120705",
"O c #03140C",
"+ c #0F1815",
"@ c #131313",
"# c #1B1B1B",
"$ c #211C18",
"% c #1C2723",
"& c #232323",
"* c #2C2C2C",
"= c #2B3831",
"- c #333333",
"; c #3B3B3B",
": c #402B2A",
"> c #434343",
", c #4A4A4A",
"< c #545454",
"1 c #5C5C5C",
"2 c #5C6561",
"3 c #646464",
"4 c #6D6D6D",
"5 c #7F6A69",
"6 c #79716E",
"7 c #747474",
"8 c #7C7C7C",
"9 c #867D80",
"0 c #7F8480",
"q c #838383",
"w c #8C8C8C",
"e c #949494",
"r c #9B9B9B",
"t c #A4A4A4",
"y c #A8A2A2",
"u c #ABABAB",
"i c #B0ACAD",
"p c #BDABAB",
"a c #AEB0AF",
"s c gray70",
"d c #B3BCB7",
"f c #BBBBBB",
"g c #C6A6A7",
"h c #D0B0B5",
"j c #B4C0B6",
"k c #B6C1BD",
"l c #BFBEC3",
"z c #BBC8C1",
"x c #C4C4C4",
"c c #C8CAC6",
"v c gray80",
"b c #DEC5C9",
"n c #CFD4D0",
"m c #D3D3D3",
"M c #DFD3D3",
"N c #DCDCDC",
"B c #EAC5CD",
"V c #EDCCD0",
"C c #E3D6D4",
"Z c #E9D3D3",
"A c #E0DBD7",
"S c #EBD7D9",
"D c #E3DADB",
"F c #F4D3DA",
"G c #F8D5DC",
"H c #DEE0DD",
"J c #F5DFE1",
"K c #E4E4E4",
"L c #EBECE6",
"P c #ECECEC",
"I c #F7E1E4",
"U c #FCE3E3",
"Y c #F0E8E6",
"T c #F2EDEE",
"R c #FEE9EA",
"E c #EDF1EC",
"W c #F3F3EE",
"Q c #FCF1EF",
"! c #EDF5F1",
"~ c #EDFEF6",
"^ c #F4F4F4",
"/ c #FEF4F4",
"( c #F5FAF6",
") c #F3F4F8",
"_ c #F6FDFC",
"` c #FEFEFE",
/* pixels */
"````````````````````````````````````````````````````````````````````````````````",
"````````````````````````````````````````````````````````````````````````````````",
"````````````````````````````````````````````````````````````````````````````````",
"````````````````````````````````````````````````````````````````````````````````",
"````````````````````````````````````````````````````````````````````````````````",
"````````````````````````````````````````````````````````````````````````````````",
"````````````````````````````````````````````````````````````````````````````````",
"````````````````````````````````````````````````````````````````````````````````",
"````````````````````````````````````````````````````````````````````````````````",
"````````````````````````````````````````````````````````````````````````````````",
"````````````````````````````````````````````````````````````````````````````````",
"````````````````````````````````````````````````````````````````````````````````",
"````````````````````````````````````````````````````````````````````````````````",
"````````````````````````````````````````````````````````````````````````````````",
"````````````````````````````````````````````````````````````````````````````````",
"````````````````````````````````````````````````````````````````````````````````",
"`````````````````^`````(``````_`````````````````````````/`````/`````````````````",
"````````````````(``(````/``````/````````````````````_/`````/````````````````````",
"````````````````^`````T`````/```````````````````/```````(/``````````````````````",
"``````````````````(````(````(_``````````````````````````````/_``````````````````",
"````````````````(```^NP`/_```````````````````````````//``(``_```````````````````",
"``````````````````(`^34P``_/``(``````````````````````_`````````(````````````````",
"``````````````````T`P#.qK``^``(`````````````````/``_```!PP``)```````````````````",
"````````````````(``_N* XeK`(``^````````````````````^``Kf;4v``/``````````````````",
"``````````````````^`K#**#q)````````^```^```/`````(`()_N#. 3(`(``````````````````",
"``````````````````((x+2u#@9^`(`(`(```/_`````````(```(v-.  @m_``)````````````````",
"````````````````````u.w/u*X7P``````T``^(`_```````^``x;X @  r(^`(````````````````",
"````````````````````r.e/`a*X4N`(`(^``vK``_/``/````^v;  *8XX</`(`````````````````",
"``````````````````_/8Xu`)`f> 3H`````m;eam````(_```N> #@dT; XK`^`````````````````",
"```````````````````(3@l````f>.,N`KmPf.4-7^`K````)D, .&x/`8 .f`(`````````````````",
"````````````````)``/<#v_`(_`n<@tc,;aa 3@>Kvqc``/K> .#t``)s.Xq^``````````````````",
"``````````````````(),#m``/``)Krmf;;seX7#1(wX7P`_a@.@u`^/`v@ 1)``````````````````",
"````````(`_/````(`^_;&N`````````^KKPs-u9t^Ktf(`^D1,f``//_K- ;^`^/```^``(````````",
"`````````````^```^^T-#N``/``````((T`(l`P^``P``)`_K^`^_```(, &N/``````/``````````",
"``````````^````/```K<,P```````````(```````````^`````/``_`_1X#v`!(`_/``_`````````",
"````````/````P^``((`PvP`````````(``)/`^`)(`((``^`((```)/``4 #v`)```(````````````",
"````````_```m73tK``T_```_``/)````````(``````````(```````/`s ;K!`PN```/`/````````",
"````````_`)/l* X>tP`^``P`````````````^`(````)(````^^``````Kws/`s14m``_``````````",
"``````````_`K9&  .,a`/``_^(```(``(``````(````````````!)```_``^f* >m(````````````",
"````````_/``_Pf,X. ;K``)Dnm^``(````(``(```(```(``(`)/````_`^/N& Xq`_````````````",
"`````````^``(/`Pr%O=D`WL;##e`(^``````)`/`_``/^`(`l22K`!__`)`(u  7P``````````````",
"```````````(`_!TTNsc/RSpX. <K`(``K``(`````^/``_`P*  6``E/`(``m7qP`^`/^``````````",
"````````(```Tw,<9zP`QFGh-##e(``^```(^```K(````(`m&.o5R/```_``/T`_`m^``/)````````",
"``````````^_N4X. -n^/FBVvus^`^``Ks7K`P^`se_`^``_!9$:gUMW_``(```Kw;>c^!``````````",
"````````(```^x1@ +kE/IBI```(``(``<.ae1rm4-N`````_(NURVCW(````/!r@ @r_`_/````````",
"```````````````Nak~_^/LW^```````/1 & @@*&>^/``^````QZVME```(``_t&X1P````````````",
"````````/````^^`T_!_E``E`P``^````Nw4eNe11s````/`)__`Q/D````^```PxN^`/`^`````````",
"```````````(``````((``Ljwm`(``(```_``_/)T`(`_/```_~`cyiK^````((`````^```````````",
"````````````````^```P`rX ,(```^`````````````````^``K3.X7T/`^`_/`````````````````",
"``````````````````P``K-4w&KT```(`````````````````(`u&41*H```/``!````````````````",
"`````````````````(``Ns@ur-K`^```````````````````(`(9#ltXfNK`!```````````````````",
"``````````````````K<@@@fu#1s(`^```````````````````Pw-lv@,37m`/^`````````````````",
"````````````````_`w@qeeKs#@Xu````````````````````^`e.4n,@#X<^`(`````````````````",
"``````````````````4;(`P``mm-,K`)````````````````(^m> 1mcvm9&c_``````````````````",
"`````````````````T4-N``^```4*K^``````````````````P3@7x)`^`s#u(`(````````````````",
"````````````````(`u.wP``(`c*;K`(`````````````````K;1P^```Pt#u``(````````````````",
"````````````````_`P4@;8rct*@t`^`````````````````(N-,m!`^mt--H`P`````````````````",
"`````````````````/`Pq@  . *eP`````````````````````3X;wst1@-u`_/^````````````````",
"````````````````_`/`^Nce77f````_````````````````^`N4&@@@*3v__``/````````````````",
"````````````````````^^`))````)/``````````````````(`(lw37uT`/``_`````````````````",
"`````````````````^```/)`/`((``(``````````````````^^``^P/``)(```(````````````````",
"```````````````````^```(````````````````````````^````_``/```(```````````````````",
"`````````````````````(^`)(``^``/``````````````````T_``````(```^`````````````````",
"``````````````````/``````````````````````````````(``_/``````T```````````````````",
"````````````````````````````````````````````````````````````````````````````````",
"````````````````````````````````````````````````````````````````````````````````",
"````````````````````````````````````````````````````````````````````````````````",
"````````````````````````````````````````````````````````````````````````````````",
"````````````````````````````````````````````````````````````````````````````````",
"````````````````````````````````````````````````````````````````````````````````",
"````````````````````````````````````````````````````````````````````````````````",
"````````````````````````````````````````````````````````````````````````````````",
"````````````````````````````````````````````````````````````````````````````````",
"````````````````````````````````````````````````````````````````````````````````",
"````````````````````````````````````````````````````````````````````````````````",
"````````````````````````````````````````````````````````````````````````````````",
"````````````````````````````````````````````````````````````````````````````````",
"````````````````````````````````````````````````````````````````````````````````",
"````````````````````````````````````````````````````````````````````````````````",
"````````````````````````````````````````````````````````````````````````````````"
};
